automatic_LUT.cube
TITLE "automatic_LUT"
LUT_3D_SIZE 8

-0.1544 -0.1404 -0.1774
-0.0108 -0.1399 -0.1777
0.1281 -0.1431 -0.1779
0.2642 -0.1479 -0.1769
0.4012 -0.1513 -0.1741
0.5408 -0.1523 -0.1705
0.6826 -0.1517 -0.1668
0.8258 -0.1502 -0.1635
-0.1526 0.0035 -0.178
-0.008 0.0047 -0.1783
0.1294 0.0002 -0.179
0.2628 -0.0066 -0.1781
0.3983 -0.0108 -0.1746
0.5378 -0.0116 -0.1702
0.6804 -0.0102 -0.166
0.8244 -0.0079 -0.1623
-0.1553 0.1439 -0.1786
-0.0118 0.1441 -0.1794
0.1252 0.1393 -0.1799
0.2586 0.1328 -0.1779
0.3942 0.1292 -0.1737
0.5345 0.1292 -0.1689
0.6784 0.1317 -0.1644
0.8235 0.1349 -0.1604
-0.1609 0.2825 -0.1781
-0.0193 0.281 -0.1791
0.1186 0.2773 -0.1785
0.2544 0.2732 -0.1753
0.3916 0.2709 -0.1709
0.5331 0.2719 -0.1663
0.678 0.2752 -0.1617
0.8237 0.2788 -0.1579
-0.1656 0.4227 -0.1754
-0.0246 0.421 -0.1756
0.1147 0.4187 -0.174
0.2532 0.4167 -0.1705
0.3927 0.416 -0.1664
0.5351 0.4175 -0.1621
0.6799 0.4207 -0.158
0.8251 0.4238 -0.1548
-0.1682 0.5651 -0.1714
-0.0269 0.564 -0.1706
0.1138 0.563 -0.1684
0.2545 0.5625 -0.165
0.3959 0.563 -0.1612
0.5387 0.5647 -0.1574
0.6828 0.5671 -0.1541
0.8273 0.5695 -0.1517
-0.1692 0.7088 -0.1672
-0.0274 0.7084 -0.1658
0.1143 0.7083 -0.1633
0.2563 0.7088 -0.1601
0.3988 0.7099 -0.1566
0.5419 0.7116 -0.1534
0.6856 0.7133 -0.1508
0.8293 0.7148 -0.1491
-0.1694 0.8531 -0.1634
-0.0271 0.8532 -0.1617
0.1152 0.8536 -0.1593
0.2579 0.8546 -0.1564
0.4008 0.8559 -0.1533
0.5441 0.8573 -0.1506
0.6875 0.8586 -0.1487
0.8309 0.8596 -0.1474
-0.1504 -0.1376 -0.0355
-0.0044 -0.1352 -0.0355
0.1326 -0.1402 -0.0369
0.2648 -0.1484 -0.0366
0.3999 -0.1529 -0.0329
0.539 -0.1538 -0.0281
0.6813 -0.1526 -0.0236
0.825 -0.1504 -0.0197
-0.1458 0.0086 -0.0356
0.0063 0.017 -0.033
0.139 0.0072 -0.0374
0.2632 -0.0079 -0.0393
0.395 -0.0141 -0.034
0.5342 -0.0145 -0.028
0.6781 -0.0116 -0.0226
0.8233 -0.0082 -0.0182
-0.1501 0.1473 -0.0376
-0.001 0.1522 -0.0375
0.1309 0.1416 -0.0426
0.256 0.1287 -0.0406
0.3865 0.1228 -0.0334
0.5276 0.1242 -0.0269
0.6749 0.1296 -0.0207
0.8222 0.1347 -0.0158
-0.1596 0.2823 -0.0386
-0.0177 0.2802 -0.0416
0.118 0.274 -0.0423
0.2492 0.2675 -0.0363
0.3805 0.2625 -0.0302
0.5243 0.2657 -0.0241
0.6744 0.2733 -0.0174
0.8228 0.2791 -0.0124
-0.1661 0.4213 -0.035
-0.0256 0.4188 -0.0361
0.1128 0.4157 -0.034
0.2499 0.4131 -0.0285
0.3869 0.4115 -0.0232
0.5304 0.4146 -0.0178
0.6782 0.4206 -0.0121
0.8252 0.4253 -0.0082
-0.1691 0.5641 -0.0294
-0.0281 0.5626 -0.0286
0.1125 0.5616 -0.0256
0.2535 0.5617 -0.0205
0.395 0.563 -0.0152
0.5384 0.5658 -0.0104
0.6834 0.5693 -0.0065
0.8284 0.572 -0.0042
-0.1699 0.7084 -0.024
-0.0282 0.7081 -0.0222
0.1138 0.7084 -0.0188
0.2564 0.7098 -0.0141
0.3996 0.712 -0.0093
0.5433 0.7145 -0.0052
0.6872 0.7166 -0.0025
0.831 0.718 -0.0013
-0.1698 0.8532 -0.0196
-0.0274 0.8536 -0.0173
0.1152 0.8546 -0.014
0.2584 0.8564 -0.0099
0.402 0.8585 -0.0058
0.5458 0.8605 -0.0026
0.6893 0.862 -0.0006
0.8326 0.8627 0.0
-0.1509 -0.1386 0.1058
-0.0044 -0.1359 0.1054
0.1315 -0.1422 0.1029
0.2629 -0.1509 0.1037
0.3979 -0.1548 0.1091
0.5376 -0.1548 0.1152
0.6805 -0.1526 0.1204
0.8248 -0.1499 0.1246
-0.1457 0.008 0.1052
0.0118 0.0218 0.1109
0.1387 0.0045 0.0991
0.26 -0.0128 0.0976
0.3912 -0.0176 0.1074
0.5314 -0.0163 0.1154
0.6769 -0.0119 0.1219
0.8232 -0.0074 0.1268
-0.1511 0.1451 0.1015
-0.001 0.1495 0.0983
0.1252 0.127 0.0747
0.2512 0.1212 0.0932
0.3749 0.1142 0.1074
0.5202 0.1192 0.1158
0.6731 0.1292 0.1244
0.8224 0.136 0.1301
-0.1618 0.2791 0.1002
-0.021 0.2738 0.0916
0.1144 0.2656 0.0866
0.2437 0.2607 0.1034
0.3452 0.2392 0.1053
0.5107 0.2566 0.117
0.673 0.2737 0.129
0.8237 0.2817 0.1349
-0.1682 0.4191 0.1059
-0.0286 0.4152 0.1034
0.1099 0.4116 0.1059
0.2511 0.4119 0.1162
0.3835 0.4084 0.1222
0.528 0.4141 0.129
0.6798 0.4242 0.1371
0.8275 0.4294 0.1407
-0.1706 0.563 0.1133
-0.03 0.5613 0.1143
0.1111 0.5608 0.1186
0.2547 0.5633 0.1266
0.3984 0.5673 0.135
0.5423 0.5718 0.1415
0.6874 0.5757 0.1452
0.8316 0.5774 0.1459
-0.1708 0.7084 0.1198
-0.029 0.7083 0.1225
0.1135 0.7097 0.1274
0.2577 0.713 0.1344
0.4028 0.7177 0.142
0.5476 0.7216 0.1473
0.6914 0.7233 0.1492
0.8343 0.7234 0.1486
-0.1701 0.8538 0.1248
-0.0276 0.8546 0.1279
0.1157 0.8566 0.1326
0.2599 0.8598 0.1384
0.4048 0.8635 0.1442
0.5492 0.8664 0.1481
0.6927 0.8675 0.1495
0.8354 0.8673 0.149
-0.1571 -0.1441 0.2467
-0.0139 -0.1448 0.2444
0.1235 -0.1496 0.2428
0.2587 -0.1543 0.2462
0.3963 -0.1556 0.2532
0.5374 -0.1542 0.2601
0.6809 -0.1514 0.2657
0.8254 -0.1485 0.2699
-0.1559 -0.0016 0.2435
-0.0121 -0.0034 0.2373
0.1223 -0.0132 0.2292
0.2545 -0.0179 0.2386
0.3903 -0.0181 0.2519
0.5324 -0.0147 0.2613
0.6783 -0.0095 0.2683
0.8245 -0.0051 0.2731
-0.1604 0.1363 0.2399
-0.0197 0.1279 0.2234
0.1185 0.1143 0.1981
0.2466 0.1156 0.2328
0.3804 0.1171 0.2535
0.5252 0.1237 0.2639
0.6766 0.1337 0.2729
0.8249 0.1398 0.278
-0.1672 0.2746 0.2417
-0.0285 0.2667 0.2303
0.1045 0.256 0.2226
0.2394 0.2496 0.234
0.3812 0.2597 0.2628
0.5229 0.2667 0.2695
0.6795 0.2818 0.2812
0.8278 0.2876 0.285
-0.1715 0.4171 0.2493
-0.0335 0.412 0.2463
0.1021 0.4056 0.2463
0.2585 0.4138 0.2608
0.422 0.4333 0.2858
0.5432 0.4308 0.2898
0.6892 0.4368 0.2947
0.8331 0.4375 0.2933
-0.1725 0.5626 0.2579
-0.0325 0.5608 0.2594
0.1084 0.5611 0.265
0.2553 0.568 0.2779
0.4071 0.5816 0.2961
0.5557 0.5912 0.3072
0.6974 0.5901 0.3051
0.8376 0.5862 0.2994
-0.1716 0.7089 0.265
-0.0298 0.7096 0.2687
0.1135 0.7126 0.2758
0.2602 0.7197 0.2872
0.4098 0.7299 0.3005
0.5571 0.7361 0.3077
0.6992 0.7349 0.3059
0.8394 0.7311 0.3009
-0.1703 0.8548 0.2701
-0.0274 0.8565 0.2743
0.1166 0.8599 0.2807
0.2625 0.8654 0.2891
0.4093 0.8716 0.2974
0.5548 0.8753 0.3021
0.6977 0.8753 0.3019
0.8391 0.8731 0.299
-0.1636 -0.1486 0.3905
-0.0223 -0.1507 0.3883
0.1168 -0.1536 0.3885
0.2554 -0.1552 0.3929
0.3957 -0.1545 0.3998
0.5383 -0.152 0.4065
0.6823 -0.149 0.4119
0.8267 -0.1463 0.4157
-0.1647 -0.0078 0.3873
-0.0243 -0.0117 0.3822
0.1132 -0.0164 0.3809
0.2504 -0.0179 0.3886
0.3915 -0.015 0.4
0.5358 -0.01 0.4096
0.6814 -0.0051 0.4162
0.8268 -0.0016 0.4201
-0.168 0.1318 0.3858
-0.0293 0.1256 0.3779
0.1051 0.1178 0.3741
0.2392 0.1144 0.383
0.3879 0.1251 0.4028
0.5356 0.135 0.4169
0.683 0.1419 0.4242
0.8288 0.1453 0.427
-0.172 0.273 0.3891
-0.0356 0.266 0.383
0.0906 0.2517 0.3753
0.2032 0.2238 0.3531
0.3898 0.2731 0.4144
0.5433 0.2908 0.435
0.6904 0.2961 0.4392
0.8336 0.2956 0.4368
-0.1741 0.4172 0.3963
-0.0374 0.4124 0.395
0.094 0.4047 0.394
0.2205 0.401 0.4028
0.344 0.4091 0.4291
0.5732 0.4762 0.4829
0.7048 0.4586 0.4614
0.8404 0.4478 0.4477
-0.1737 0.5636 0.4044
-0.0339 0.5628 0.4075
0.1062 0.5648 0.4156
0.2522 0.5773 0.4365
0.4313 0.6242 0.4893
0.5914 0.6405 0.5045
0.7132 0.6121 0.4724
0.8449 0.5966 0.454
-0.172 0.7104 0.4112
-0.0298 0.7122 0.4164
0.1145 0.7175 0.4263
0.2647 0.7302 0.4439
0.4225 0.7502 0.4673
0.5723 0.7579 0.4754
0.709 0.749 0.4649
0.845 0.7393 0.4531
-0.1702 0.8564 0.4158
-0.0268 0.859 0.4212
0.1182 0.864 0.4294
0.2659 0.8721 0.4406
0.4151 0.881 0.4518
0.5614 0.8854 0.4568
0.7031 0.8833 0.4542
0.8429 0.8787 0.4485
-0.1677 -0.1502 0.537
-0.0267 -0.1519 0.5363
0.1135 -0.1533 0.5377
0.2542 -0.1534 0.5419
0.3963 -0.1517 0.5478
0.5398 -0.1489 0.5537
0.684 -0.1461 0.5584
0.8282 -0.1438 0.5615
-0.1694 -0.0091 0.5355
-0.0294 -0.0118 0.5339
0.1097 -0.014 0.5354
0.25 -0.0136 0.5414
0.3935 -0.0097 0.5504
0.539 -0.0046 0.5587
0.6845 -0.0005 0.5641
0.8292 0.0018 0.5668
-0.1719 0.132 0.5359
-0.0333 0.1282 0.5339
0.1035 0.1246 0.5351
0.2432 0.1256 0.5428
0.3909 0.1345 0.5573
0.541 0.1443 0.5695
0.688 0.1491 0.5745
0.8322 0.1502 0.575
-0.1742 0.2747 0.5393
-0.0368 0.2708 0.5384
0.0975 0.2662 0.5399
0.2347 0.268 0.55
0.3893 0.2873 0.5759
0.5522 0.3068 0.5952
0.6975 0.3066 0.593
0.838 0.3018 0.5861
-0.1748 0.4197 0.5454
-0.0365 0.4177 0.5475
0.1001 0.4174 0.5539
0.2385 0.4262 0.5737
0.4248 0.4815 0.6357
0.5966 0.5063 0.6574
0.7139 0.4714 0.6178
0.8451 0.4546 0.5977
-0.1735 0.5661 0.5522
-0.0327 0.5672 0.5573
0.1098 0.5728 0.5689
0.2631 0.5932 0.597
0.4584 0.6563 0.6654
0.6089 0.6627 0.6709
0.721 0.623 0.627
0.8491 0.6026 0.6034
-0.1715 0.7126 0.5578
-0.0286 0.7156 0.5643
0.1171 0.7229 0.576
0.2698 0.7387 0.5965
0.4306 0.7617 0.6228
0.5797 0.7683 0.6296
0.714 0.7561 0.6155
0.8482 0.7439 0.6011
-0.1697 0.8582 0.5616
-0.0258 0.8615 0.5677
0.1199 0.8676 0.5769
0.2686 0.8768 0.5892
0.4186 0.8867 0.6011
0.565 0.8908 0.6058
0.706 0.8878 0.602
0.8451 0.8821 0.5951
-0.1698 -0.1498 0.6845
-0.0284 -0.1507 0.685
0.1128 -0.1511 0.6871
0.2547 -0.1503 0.6909
0.3977 -0.1483 0.6959
0.5415 -0.1457 0.7006
0.6856 -0.1434 0.7043
0.8296 -0.1417 0.7067
-0.1712 -0.0079 0.6845
-0.0305 -0.0092 0.6851
0.1102 -0.0095 0.6878
0.2524 -0.0079 0.6932
0.3965 -0.0042 0.7002
0.5418 0.0 0.7066
0.6869 0.0029 0.7106
0.831 0.0044 0.7123
-0.1728 0.1344 0.686
-0.0327 0.133 0.6871
0.1074 0.133 0.6909
0.2501 0.1362 0.6987
0.3968 0.1431 0.7092
0.5448 0.1498 0.7176
0.6906 0.1528 0.7207
0.8342 0.1529 0.7202
-0.1739 0.278 0.6894
-0.034 0.2772 0.6918
0.1062 0.2785 0.6978
0.2504 0.2852 0.71
0.4022 0.2984 0.7271
0.5542 0.3083 0.7376
0.6985 0.3078 0.736
0.8393 0.3036 0.7303
-0.1737 0.4231 0.6944
-0.0329 0.4239 0.6988
0.1091 0.4282 0.7083
0.2578 0.4409 0.727
0.419 0.4651 0.7551
0.5726 0.4756 0.7656
0.7092 0.4653 0.753
0.845 0.4545 0.7399
-0.1723 0.5691 0.6997
-0.0299 0.5717 0.7059
0.115 0.5788 0.7177
0.2676 0.595 0.739
0.4303 0.6202 0.7677
0.5805 0.6276 0.7751
0.7142 0.6144 0.7597
0.8482 0.6015 0.7445
-0.1705 0.7148 0.704
-0.0269 0.7185 0.7108
0.1193 0.7258 0.7218
0.2703 0.7386 0.7383
0.4246 0.7535 0.7557
0.5722 0.7586 0.7612
0.7108 0.7521 0.7534
0.8476 0.7432 0.7428
-0.169 0.8598 0.7069
-0.0248 0.8635 0.713
0.121 0.8694 0.7217
0.2691 0.8775 0.7324
0.4177 0.8855 0.7422
0.5635 0.889 0.7462
0.7052 0.8868 0.7435
0.845 0.8821 0.7377
-0.1704 -0.1485 0.8318
-0.0286 -0.1487 0.833
0.1133 -0.1484 0.8353
0.2559 -0.1472 0.8388
0.3992 -0.1453 0.8427
0.543 -0.1432 0.8465
0.6869 -0.1414 0.8493
0.8306 -0.1402 0.8511
-0.1714 -0.0058 0.8327
-0.0298 -0.006 0.8343
0.1121 -0.0053 0.8375
0.2551 -0.0033 0.8422
0.3992 -0.0003 0.8475
0.5439 0.0027 0.8522
0.6883 0.0048 0.8551
0.8321 0.0058 0.8563
-0.1722 0.1372 0.8347
-0.0308 0.1374 0.8371
0.1113 0.1389 0.8416
0.2551 0.1423 0.8481
0.4007 0.1472 0.8555
0.5467 0.1515 0.8611
0.6914 0.1534 0.8633
0.8348 0.1535 0.863
-0.1726 0.2813 0.8379
-0.0309 0.2822 0.8415
0.1118 0.2851 0.8478
0.2571 0.2909 0.8571
0.405 0.2985 0.8673
0.5524 0.3039 0.8736
0.6966 0.3045 0.8739
0.8386 0.3023 0.8708
-0.1721 0.4262 0.8419
-0.0297 0.4283 0.8469
0.1143 0.433 0.8553
0.2618 0.4415 0.8675
0.4122 0.4521 0.8805
0.56 0.4576 0.8866
0.7024 0.4557 0.8839
0.8425 0.4508 0.8777
-0.1709 0.5715 0.846
-0.0276 0.5746 0.8519
0.1177 0.5806 0.8613
0.2664 0.5903 0.8743
0.4173 0.6011 0.8874
0.5644 0.6059 0.8927
0.7057 0.6028 0.8887
0.8448 0.5968 0.8813
-0.1695 0.7166 0.8492
-0.0255 0.7201 0.8553
0.1202 0.7261 0.8641
0.2683 0.7344 0.8751
0.4172 0.7427 0.8852
0.5632 0.7464 0.8894
0.705 0.7442 0.8867
0.8448 0.7394 0.8807
-0.1683 0.861 0.8513
-0.0241 0.8644 0.8568
0.1213 0.8693 0.864
0.2679 0.8754 0.8722
0.4147 0.881 0.8791
0.5597 0.8837 0.8823
0.7023 0.8828 0.8812
0.8433 0.8798 0.8775
