manual_LUT.cube
TITLE "test"
LUT_3D_SIZE 8

-0.0307 -0.0101 -0.0423
0.113 -0.0075 -0.0372
0.2527 -0.0032 -0.02
0.3786 -0.015 -0.0207
0.5027 -0.0308 -0.0294
0.6339 -0.04 -0.035
0.7714 -0.0432 -0.0368
0.9126 -0.0434 -0.0367
-0.0287 0.1351 -0.0395
0.1167 0.1402 -0.0306
0.2545 0.1439 -0.0115
0.3701 0.1205 -0.0228
0.4891 0.099 -0.0372
0.6219 0.0918 -0.0418
0.7624 0.0921 -0.0412
0.9059 0.0944 -0.0395
-0.0261 0.2882 -0.0176
0.1178 0.2925 -0.0078
0.2442 0.28 -0.0098
0.3518 0.2462 -0.0331
0.4722 0.2256 -0.048
0.6101 0.2243 -0.0484
0.7542 0.2289 -0.0447
0.9 0.2335 -0.0414
-0.0339 0.4285 -0.0108
0.1031 0.4249 -0.0094
0.2248 0.4054 -0.021
0.3377 0.3764 -0.0419
0.4639 0.3621 -0.0521
0.6042 0.3639 -0.05
0.7495 0.3696 -0.0454
0.8964 0.3748 -0.0419
-0.0462 0.5618 -0.015
0.0875 0.5541 -0.0184
0.2127 0.538 -0.0288
0.3353 0.5196 -0.0416
0.4658 0.5103 -0.0477
0.6051 0.5106 -0.0467
0.7494 0.5144 -0.0437
0.896 0.5186 -0.0411
-0.0558 0.6966 -0.0201
0.0782 0.6892 -0.0242
0.2083 0.6782 -0.0312
0.3379 0.6672 -0.0384
0.4714 0.6609 -0.0422
0.6101 0.6597 -0.0425
0.753 0.6613 -0.0412
0.8986 0.664 -0.0396
-0.0618 0.8346 -0.0236
0.0738 0.8287 -0.027
0.2077 0.8215 -0.0315
0.3416 0.8146 -0.0358
0.4775 0.8102 -0.0384
0.6165 0.8084 -0.0391
0.7586 0.8087 -0.0388
0.9028 0.8102 -0.0381
-0.0651 0.9748 -0.0257
0.0721 0.9705 -0.0283
0.2086 0.9655 -0.0313
0.3452 0.961 -0.034
0.483 0.9578 -0.0359
0.6226 0.9561 -0.0368
0.7643 0.9557 -0.0369
0.9075 0.9563 -0.0366
-0.03 -0.0127 0.0926
0.116 -0.0076 0.1002
0.2624 0.0083 0.1359
0.3805 -0.0118 0.1278
0.4982 -0.0346 0.1123
0.6284 -0.0446 0.1055
0.7669 -0.0465 0.1043
0.9092 -0.0455 0.105
-0.0284 0.1308 0.0918
0.126 0.1479 0.1155
0.2784 0.1738 0.167
0.3662 0.1178 0.1225
0.4752 0.085 0.0969
0.6114 0.0822 0.095
0.7553 0.0868 0.0987
0.901 0.0915 0.1019
-0.0148 0.3016 0.1402
0.1463 0.3284 0.1778
0.2612 0.3017 0.1604
0.3247 0.2174 0.0905
0.4434 0.194 0.0719
0.5944 0.2097 0.0846
0.7446 0.2224 0.0947
0.8938 0.2301 0.1
-0.0267 0.4376 0.1429
0.1123 0.4367 0.1482
0.2199 0.4015 0.1229
0.3076 0.3436 0.0773
0.4363 0.3322 0.0689
0.5878 0.3509 0.0848
0.7383 0.3638 0.0951
0.8892 0.3717 0.1
-0.0439 0.565 0.1322
0.0877 0.5554 0.1276
0.2056 0.5317 0.1109
0.3201 0.5048 0.0912
0.4496 0.4969 0.0866
0.5912 0.5031 0.093
0.7386 0.5101 0.0982
0.8891 0.5161 0.1013
-0.0557 0.6973 0.1241
0.0767 0.6884 0.1189
0.2038 0.6747 0.1097
0.3304 0.6617 0.101
0.4621 0.6556 0.0979
0.6005 0.6558 0.0993
0.7452 0.6587 0.1013
0.8933 0.6624 0.103
-0.0621 0.8346 0.1195
0.0727 0.8281 0.1155
0.2054 0.82 0.1103
0.3381 0.8126 0.1057
0.473 0.8082 0.1034
0.6117 0.8068 0.1032
0.7543 0.8075 0.1038
0.8998 0.8094 0.1046
-0.0653 0.9748 0.1171
0.0716 0.9702 0.1143
0.2077 0.9651 0.111
0.3439 0.9605 0.1082
0.4814 0.9573 0.1064
0.6208 0.9557 0.1058
0.7625 0.9555 0.1058
0.9061 0.9561 0.1061
-0.0211 0.0046 0.2647
0.13 0.0176 0.2839
0.267 0.0178 0.2952
0.378 -0.0123 0.2735
0.4939 -0.0376 0.2542
0.6248 -0.0469 0.2474
0.7642 -0.0478 0.2468
0.9073 -0.0462 0.2477
-0.0101 0.1626 0.2846
0.1723 0.2182 0.3591
0.2916 0.1932 0.3369
0.3579 0.1107 0.2625
0.4656 0.0762 0.234
0.6054 0.0782 0.2357
0.7512 0.0852 0.2411
0.8983 0.0907 0.2448
-0.0063 0.3161 0.3056
0.1641 0.3536 0.3545
0.2646 0.3081 0.3143
0.2952 0.1852 0.2087
0.4237 0.172 0.198
0.5855 0.2049 0.2254
0.7381 0.221 0.2381
0.8898 0.2295 0.2433
-0.0253 0.4412 0.2925
0.113 0.4395 0.2971
0.2113 0.3937 0.2614
0.2835 0.3167 0.1994
0.4194 0.3144 0.1987
0.5746 0.3501 0.2313
0.728 0.3629 0.2405
0.8839 0.3711 0.2439
-0.0447 0.5652 0.2767
0.0855 0.5542 0.2707
0.2006 0.5277 0.2513
0.3121 0.4993 0.2305
0.4383 0.4955 0.2315
0.5739 0.5029 0.2416
0.7268 0.5091 0.244
0.8839 0.5158 0.2454
-0.0564 0.697 0.2672
0.0755 0.6878 0.2614
0.2023 0.674 0.2518
0.3281 0.6617 0.2438
0.4565 0.6562 0.2426
0.5916 0.6557 0.2447
0.7387 0.6586 0.2459
0.8904 0.6627 0.2468
-0.0623 0.8346 0.2623
0.0727 0.8282 0.2581
0.2059 0.8206 0.253
0.3389 0.8141 0.2489
0.4731 0.8101 0.2472
0.6106 0.8084 0.2472
0.7532 0.8088 0.2476
0.8993 0.8104 0.2482
-0.0651 0.975 0.2599
0.0722 0.9707 0.257
0.2089 0.9661 0.2538
0.3457 0.9621 0.2513
0.4833 0.9593 0.2498
0.6224 0.9577 0.2493
0.7636 0.9571 0.2492
0.907 0.9574 0.2494
-0.0211 0.0118 0.4258
0.1244 0.0176 0.4362
0.2551 0.0077 0.4324
0.3715 -0.0174 0.4131
0.4926 -0.0374 0.3976
0.6249 -0.0452 0.3916
0.7645 -0.0463 0.3908
0.9076 -0.0451 0.3914
-0.014 0.1647 0.4395
0.1373 0.178 0.4593
0.2585 0.157 0.444
0.3546 0.1091 0.4034
0.471 0.0849 0.3837
0.6081 0.084 0.3832
0.7522 0.0883 0.3865
0.8991 0.0926 0.389
-0.0177 0.3062 0.4425
0.1281 0.313 0.4552
0.2371 0.2786 0.4277
0.3217 0.2182 0.3773
0.445 0.2038 0.3666
0.5891 0.2166 0.3786
0.7384 0.2255 0.3851
0.8905 0.232 0.3881
-0.0334 0.4338 0.43
0.1003 0.4267 0.4279
0.2101 0.394 0.4026
0.3107 0.3531 0.3707
0.4339 0.3504 0.3735
0.564 0.3596 0.3878
0.7236 0.3664 0.3881
0.8843 0.3738 0.3889
-0.0484 0.5619 0.417
0.0826 0.5516 0.4105
0.2042 0.5321 0.3957
0.3235 0.5147 0.3836
0.4354 0.5077 0.3873
0.5507 0.5022 0.3926
0.721 0.5109 0.3905
0.8849 0.5186 0.3902
-0.0574 0.6961 0.4089
0.0763 0.6883 0.4034
0.2074 0.6784 0.3958
0.3387 0.6713 0.3907
0.4657 0.6661 0.3905
0.5932 0.6609 0.3914
0.741 0.6626 0.3913
0.8935 0.6661 0.3913
-0.0619 0.8348 0.4047
0.0747 0.8296 0.4008
0.211 0.8244 0.3965
0.3481 0.8209 0.3937
0.4844 0.8183 0.3927
0.6198 0.8153 0.3924
0.7595 0.8137 0.3922
0.9036 0.8138 0.3922
-0.0642 0.9756 0.4025
0.0744 0.9722 0.3998
0.213 0.9689 0.3971
0.3521 0.9665 0.3951
0.491 0.9646 0.394
0.6296 0.9627 0.3935
0.7692 0.9611 0.3932
0.9109 0.9603 0.3931
-0.0308 0.0049 0.5671
0.1093 0.0039 0.5693
0.2408 -0.0058 0.5635
0.3662 -0.0218 0.5516
0.4941 -0.0348 0.5417
0.6284 -0.0411 0.537
0.7678 -0.0428 0.5356
0.9104 -0.0424 0.5357
-0.0293 0.1507 0.5721
0.1101 0.1493 0.5744
0.2366 0.1342 0.5638
0.3556 0.1116 0.5458
0.4813 0.0974 0.5348
0.6168 0.0937 0.5322
0.7586 0.0945 0.5328
0.9036 0.0967 0.5339
-0.0339 0.29 0.5709
0.1024 0.2853 0.5699
0.2251 0.2661 0.5553
0.3424 0.2427 0.5365
0.4689 0.2321 0.5292
0.6045 0.2315 0.5303
0.7489 0.234 0.532
0.8975 0.2373 0.5333
-0.0434 0.4238 0.5635
0.0902 0.4159 0.5586
0.2154 0.3992 0.5453
0.3403 0.3845 0.5332
0.4662 0.3785 0.5317
0.5916 0.3737 0.5335
0.7407 0.3762 0.5337
0.8941 0.3802 0.5339
-0.0522 0.558 0.5554
0.0824 0.5506 0.5498
0.2157 0.5414 0.5412
0.3558 0.5391 0.5364
0.4939 0.5399 0.5373
0.6005 0.5239 0.5364
0.7452 0.5232 0.5354
0.8969 0.5257 0.5349
-0.0578 0.6954 0.55
0.0797 0.6904 0.5455
0.2195 0.6868 0.5405
0.368 0.69 0.5386
0.5192 0.696 0.5396
0.6392 0.685 0.5383
0.7643 0.6752 0.5366
0.9054 0.673 0.5358
-0.0608 0.8353 0.5468
0.0787 0.8321 0.5436
0.2204 0.8305 0.5406
0.3659 0.8319 0.5391
0.5103 0.8334 0.5388
0.6439 0.829 0.5381
0.7753 0.8228 0.5371
0.9131 0.8195 0.5365
-0.0627 0.9765 0.5451
0.0777 0.9743 0.5428
0.2193 0.9729 0.5407
0.362 0.9727 0.5393
0.5036 0.9722 0.5386
0.6418 0.9699 0.538
0.7788 0.9668 0.5374
0.9177 0.9644 0.537
-0.0405 -0.0035 0.7041
0.0979 -0.0066 0.7032
0.2322 -0.014 0.6985
0.364 -0.0236 0.6916
0.4971 -0.0317 0.6855
0.6334 -0.0365 0.682
0.7729 -0.0386 0.6805
0.9146 -0.0391 0.68
-0.0413 0.1393 0.7053
0.0962 0.1351 0.7035
0.2284 0.1257 0.6969
0.3586 0.1145 0.6882
0.4911 0.1065 0.682
0.6277 0.1026 0.6793
0.7678 0.1014 0.6787
0.9105 0.1016 0.6788
-0.0448 0.2791 0.7035
0.0916 0.2737 0.7002
0.2237 0.2638 0.6924
0.3555 0.2542 0.6841
0.4899 0.2485 0.6796
0.6259 0.2454 0.6783
0.7652 0.2438 0.6781
0.908 0.2439 0.6783
-0.0499 0.4171 0.6992
0.0869 0.4115 0.6948
0.2229 0.4045 0.6878
0.3636 0.4015 0.6825
0.5063 0.402 0.681
0.6372 0.3964 0.6801
0.7688 0.3903 0.6791
0.9089 0.3883 0.6787
-0.0543 0.5554 0.6946
0.0847 0.5513 0.6904
0.2276 0.5493 0.6855
0.3844 0.5566 0.6837
0.5527 0.5712 0.6855
0.6721 0.5589 0.6836
0.7814 0.5408 0.6807
0.9139 0.5345 0.6795
-0.0573 0.6951 0.6912
0.084 0.6928 0.6878
0.2308 0.6939 0.6848
0.3909 0.7033 0.6843
0.5581 0.717 0.686
0.6824 0.7071 0.6845
0.7915 0.689 0.6816
0.92 0.6807 0.6802
-0.0594 0.836 0.689
0.0828 0.8346 0.6865
0.2287 0.8356 0.6844
0.3801 0.8402 0.6837
0.53 0.8444 0.6838
0.6645 0.84 0.683
0.7912 0.8312 0.6816
0.9235 0.8252 0.6806
-0.0611 0.9774 0.6877
0.0811 0.9764 0.6859
0.225 0.9765 0.6842
0.3703 0.9777 0.6833
0.514 0.9782 0.6827
0.6526 0.976 0.6821
0.7881 0.972 0.6814
0.9247 0.9684 0.6808
-0.0474 -0.0097 0.842
0.0913 -0.0129 0.8404
0.2281 -0.018 0.837
0.364 -0.0239 0.8327
0.5004 -0.029 0.8289
0.6384 -0.0326 0.8263
0.778 -0.0347 0.8249
0.9192 -0.0358 0.8242
-0.0485 0.1323 0.8419
0.0898 0.1286 0.8396
0.2262 0.1229 0.8354
0.362 0.1169 0.8306
0.4987 0.1121 0.8269
0.6367 0.109 0.8247
0.7762 0.107 0.8237
0.9173 0.106 0.8233
-0.0507 0.2731 0.8403
0.0877 0.2692 0.8374
0.2252 0.2642 0.8328
0.3634 0.2598 0.8284
0.5021 0.2568 0.8256
0.6398 0.2539 0.8241
0.7777 0.2511 0.8233
0.9175 0.2494 0.8229
-0.0532 0.4134 0.8377
0.0865 0.4101 0.8345
0.2274 0.4073 0.8304
0.3719 0.4072 0.8273
0.5164 0.4079 0.8259
0.6524 0.4043 0.8249
0.7844 0.3984 0.8238
0.9204 0.3944 0.8232
-0.0552 0.5539 0.835
0.0864 0.552 0.832
0.2321 0.5523 0.8289
0.385 0.5574 0.8274
0.5382 0.5631 0.8275
0.6714 0.558 0.8265
0.7946 0.5473 0.8248
0.9252 0.5403 0.8237
-0.0568 0.695 0.8329
0.0864 0.6942 0.8304
0.2342 0.6961 0.8283
0.3889 0.7024 0.8275
0.5425 0.7084 0.8278
0.6766 0.7037 0.827
0.7998 0.693 0.8253
0.9291 0.6854 0.8241
-0.0583 0.8365 0.8314
0.0852 0.8361 0.8295
0.2319 0.8377 0.8279
0.3818 0.8414 0.8271
0.5294 0.844 0.8269
0.6668 0.8411 0.8263
0.7975 0.8345 0.8252
0.9302 0.8288 0.8243
-0.0599 0.9781 0.8304
0.0832 0.9777 0.8289
0.2279 0.9783 0.8276
0.3735 0.9796 0.8268
0.5173 0.9801 0.8263
0.6568 0.9783 0.8257
0.7931 0.9747 0.825
0.9296 0.9711 0.8244
-0.0518 -0.0138 0.9814
0.0877 -0.0164 0.9799
0.2264 -0.0199 0.9774
0.3646 -0.0237 0.9746
0.5031 -0.0271 0.9721
0.6422 -0.0299 0.9702
0.7822 -0.0318 0.9689
0.9232 -0.033 0.9682
-0.0527 0.1283 0.9809
0.0869 0.1255 0.979
0.2257 0.122 0.9762
0.3643 0.1184 0.9732
0.5032 0.1153 0.9708
0.6424 0.1128 0.9691
0.7821 0.1108 0.9681
0.9226 0.1094 0.9675
-0.0538 0.2699 0.9797
0.0862 0.2673 0.9775
0.2261 0.2644 0.9746
0.3664 0.262 0.9719
0.5066 0.2599 0.9698
0.6457 0.2576 0.9685
0.7843 0.2551 0.9676
0.9237 0.2531 0.9671
-0.055 0.4114 0.978
0.0861 0.4094 0.9757
0.2283 0.408 0.9731
0.3718 0.4076 0.971
0.5145 0.4071 0.9696
0.6533 0.4048 0.9686
0.7894 0.4011 0.9678
0.9265 0.3978 0.9672
-0.0559 0.553 0.9764
0.0866 0.5519 0.9742
0.2313 0.5521 0.9721
0.3783 0.5539 0.9706
0.5236 0.5551 0.9699
0.6619 0.5526 0.9691
0.7954 0.5474 0.9682
0.93 0.5428 0.9674
-0.0568 0.6948 0.9749
0.0866 0.6944 0.9731
0.2326 0.6955 0.9715
0.3806 0.698 0.9705
0.5266 0.6996 0.97
0.6651 0.6973 0.9693
0.7984 0.692 0.9684
0.9325 0.6871 0.9676
-0.058 0.8366 0.9739
0.0857 0.8365 0.9724
0.2311 0.8374 0.9711
0.3776 0.8392 0.9702
0.5222 0.8401 0.9697
0.6617 0.8382 0.9692
0.7973 0.8342 0.9684
0.9329 0.8301 0.9678
-0.0593 0.9784 0.9731
0.0839 0.9782 0.9719
0.2282 0.9786 0.9708
0.3727 0.9794 0.97
0.5159 0.9794 0.9695
0.6562 0.978 0.9689
0.7943 0.9753 0.9684
0.9321 0.9725 0.9679
